svg/language_html5.svg

<svg xmlns="http://www.w3.org/2000/svg" viewBox="0 0 24 24"><path d="m12 17.56 4.07-1.13.55-6.1H9.38L9.2 8.3h7.6l.2-1.99H7l.56 6.01h6.89l-.23 2.58-2.22.6-2.22-.6-.14-1.66h-2l.29 3.19zM4.07 3h15.86L18.5 19.2 12 21l-6.5-1.8z"/></svg>

<?xml version="1.0" encoding="UTF-8"?><!DOCTYPE svg PUBLIC "-//W3C//DTD SVG 1.1//EN" "http://www.w3.org/Graphics/SVG/1.1/DTD/svg11.dtd"><svg xmlns="http://www.w3.org/2000/svg" xmlns:xlink="http://www.w3.org/1999/xlink" version="1.1" id="mdi-language-html5" width="24" height="24" viewBox="0 0 24 24"><path d="M12,17.56L16.07,16.43L16.62,10.33H9.38L9.2,8.3H16.8L17,6.31H7L7.56,12.32H14.45L14.22,14.9L12,15.5L9.78,14.9L9.64,13.24H7.64L7.93,16.43L12,17.56M4.07,3H19.93L18.5,19.2L12,21L5.5,19.2L4.07,3Z" /></svg>
